packages/icons/web/union_pay_large.svg

<svg width="24" height="24" viewBox="0 0 24 24" fill="none" xmlns="http://www.w3.org/2000/svg">
<path d="M5.91671 6.00012H10.9086C11.6055 6.00012 12.0389 6.5681 11.8763 7.26723L9.55221 17.2455C9.38819 17.9422 8.69051 18.5106 7.9932 18.5106H3.00177C2.30592 18.5106 1.87154 17.9422 2.0341 17.2455L4.35917 7.26723C4.52172 6.5681 5.21904 6.00012 5.91671 6.00012Z" fill="#E21836"/>
<path d="M10.4936 6H16.2341C16.9308 6 16.6167 6.56797 16.4528 7.26711L14.129 17.2453C13.966 17.942 14.0169 18.5105 13.3187 18.5105H7.57812C6.87996 18.5105 6.44789 17.942 6.61191 17.2453L8.93552 7.26711C9.10051 6.56797 9.79636 6 10.4936 6Z" fill="#00447C"/>
<path d="M16.006 6H20.9979C21.6957 6 22.1291 6.56797 21.9652 7.26711L19.6415 17.2453C19.4775 17.942 18.7793 18.5105 18.0816 18.5105H13.092C12.3939 18.5105 11.9608 17.942 12.1244 17.2453L14.4485 7.26711C14.611 6.56797 15.3078 6 16.006 6Z" fill="#007B84"/>
<path d="M7.22042 9.19779C6.70707 9.20303 6.55547 9.19779 6.50704 9.18636C6.48843 9.27481 6.14202 10.8728 6.14105 10.8741C6.06646 11.1974 6.01219 11.4278 5.82786 11.5766C5.72322 11.6632 5.60106 11.7049 5.45943 11.7049C5.23178 11.7049 5.09915 11.5919 5.07689 11.3775L5.07263 11.3038C5.07263 11.3038 5.14198 10.8708 5.14198 10.8684C5.14198 10.8684 5.50554 9.41218 5.57064 9.2197C5.57405 9.20874 5.57502 9.20303 5.57587 9.19779C4.86822 9.204 4.74277 9.19779 4.73413 9.18636C4.72939 9.20205 4.71186 9.29233 4.71186 9.29233L4.34064 10.9336L4.30876 11.0728L4.24707 11.5281C4.24707 11.6632 4.2736 11.7734 4.3264 11.8666C4.49553 12.1621 4.97797 12.2064 5.25088 12.2064C5.60252 12.2064 5.93238 12.1317 6.15528 11.9953C6.54221 11.7667 6.64344 11.4093 6.73372 11.0918L6.77558 10.9288C6.77558 10.9288 7.15009 9.41644 7.21372 9.2197C7.21616 9.20874 7.21713 9.20303 7.22042 9.19779ZM8.49467 10.4179C8.40439 10.4179 8.2394 10.4398 8.0912 10.5124C8.03742 10.54 7.98656 10.5719 7.9329 10.6037L7.98133 10.4288L7.9548 10.3994C7.64052 10.463 7.57019 10.4715 7.27988 10.5124L7.25554 10.5286C7.22184 10.8081 7.19191 11.0182 7.06695 11.5676C7.01937 11.77 6.96997 11.9744 6.92045 12.1764L6.93384 12.2021C7.23133 12.1864 7.32161 12.1864 7.58017 12.1907L7.6011 12.1679C7.63395 11.9996 7.63821 11.9602 7.71097 11.6194C7.74516 11.4578 7.81646 11.1028 7.85162 10.9764C7.91623 10.9464 7.97999 10.917 8.04083 10.917C8.18574 10.917 8.1681 11.0434 8.1625 11.0938C8.15629 11.1783 8.10349 11.4545 8.04934 11.6917L8.01321 11.8447C7.98802 11.9578 7.9604 12.0676 7.93521 12.1797L7.94616 12.2021C8.2394 12.1864 8.32883 12.1864 8.57923 12.1907L8.60868 12.1679C8.65394 11.9051 8.6672 11.8348 8.74751 11.4521L8.7879 11.2763C8.86638 10.9322 8.90581 10.7577 8.84643 10.6156C8.78365 10.4563 8.63301 10.4179 8.49467 10.4179ZM9.91816 10.7781C9.76229 10.8081 9.66288 10.828 9.56409 10.8409C9.46614 10.8566 9.37062 10.8708 9.21999 10.8918L9.20807 10.9026L9.19712 10.9112C9.18142 11.0234 9.17047 11.1204 9.14966 11.2344C9.13202 11.3523 9.10489 11.4863 9.06072 11.6788C9.02653 11.8261 9.00889 11.8775 8.98942 11.9293C8.97044 11.9811 8.94951 12.0315 8.91106 12.1764L8.92007 12.1898L8.92761 12.2021C9.06839 12.1954 9.16049 12.1906 9.25516 12.1898C9.3497 12.1864 9.44764 12.1898 9.59925 12.1906L9.61251 12.1798L9.62675 12.1679C9.64865 12.0372 9.65193 12.002 9.66532 11.9383C9.67858 11.8699 9.70146 11.7752 9.75755 11.5224C9.78407 11.4037 9.81364 11.2853 9.84114 11.1641C9.86973 11.0434 9.89966 10.9245 9.92813 10.8058L9.92388 10.7914L9.91816 10.7781ZM9.92148 10.2924C9.77985 10.2088 9.53127 10.2353 9.36397 10.3508C9.19715 10.4639 9.17817 10.6246 9.31931 10.7092C9.45851 10.7905 9.70806 10.7663 9.8739 10.6499C10.0404 10.5343 10.0612 10.3751 9.92148 10.2924ZM10.778 12.2283C11.0645 12.2283 11.3583 12.1493 11.5793 11.915C11.7494 11.7249 11.8274 11.4421 11.8545 11.3257C11.9424 10.9398 11.8739 10.7596 11.7879 10.6498C11.6572 10.4825 11.4263 10.4288 11.1867 10.4288C11.0426 10.4288 10.6995 10.4431 10.4315 10.6902C10.239 10.8685 10.15 11.1103 10.0964 11.3422C10.0422 11.5785 9.97994 12.0039 10.3711 12.1622C10.4918 12.214 10.6658 12.2283 10.778 12.2283ZM10.7556 11.3599C10.8217 11.0676 10.8997 10.8223 11.0987 10.8223C11.2547 10.8223 11.266 11.0048 11.1967 11.2981C11.1843 11.3632 11.1273 11.6052 11.0503 11.7082C10.9965 11.7843 10.9329 11.8304 10.8626 11.8304C10.8416 11.8304 10.7172 11.8304 10.7152 11.6456C10.7142 11.5543 10.7329 11.4611 10.7556 11.3599ZM12.5707 12.1907L12.5931 12.1679C12.6249 11.9997 12.6301 11.9601 12.7004 11.6194C12.7356 11.4579 12.8084 11.1028 12.8426 10.9764C12.9073 10.9463 12.97 10.9169 13.0327 10.9169C13.1767 10.9169 13.1592 11.0433 13.1534 11.0937C13.1482 11.1784 13.0954 11.4544 13.0403 11.6916L13.0061 11.8447C12.9799 11.9578 12.9515 12.0676 12.9263 12.1797L12.9372 12.2021C13.2314 12.1864 13.3175 12.1864 13.5693 12.1907L13.5997 12.1679C13.6439 11.905 13.6558 11.8347 13.7386 11.4521L13.778 11.2762C13.8568 10.9321 13.8967 10.7577 13.8383 10.6156C13.7737 10.4564 13.6221 10.4179 13.4857 10.4179C13.3953 10.4179 13.2295 10.4397 13.0821 10.5124C13.0295 10.5401 12.9766 10.5718 12.9248 10.6037L12.97 10.4289L12.9457 10.3993C12.6316 10.463 12.5598 10.4716 12.2698 10.5124L12.2476 10.5286C12.2124 10.8081 12.1838 11.0181 12.0589 11.5676C12.0113 11.7701 11.9619 11.9745 11.9125 12.1765L11.9258 12.2021C12.2237 12.1864 12.3127 12.1864 12.5707 12.1907ZM14.7323 12.2021C14.7508 12.1118 14.8607 11.5767 14.8617 11.5767C14.8617 11.5767 14.9552 11.184 14.961 11.1698C14.961 11.1698 14.9904 11.1289 15.0199 11.1127H15.0632C15.4719 11.1127 15.9334 11.1127 16.2951 10.8466C16.5413 10.6641 16.7095 10.3946 16.7846 10.0671C16.8041 9.98675 16.8184 9.89124 16.8184 9.79572C16.8184 9.67028 16.7933 9.54617 16.7205 9.4492C16.536 9.19113 16.1687 9.18638 15.7447 9.18443C15.7433 9.18443 15.5356 9.18638 15.5356 9.18638C14.9928 9.19307 14.7752 9.19113 14.6857 9.18018C14.6782 9.21972 14.664 9.29005 14.664 9.29005C14.664 9.29005 14.4695 10.1912 14.4695 10.1926C14.4695 10.1926 14.0042 12.1085 13.9823 12.1988C14.4563 12.1931 14.6506 12.1931 14.7323 12.2021ZM15.0926 10.6013C15.0926 10.6013 15.2993 9.70204 15.2984 9.70544L15.3051 9.65933L15.308 9.62416L15.3906 9.63268C15.3906 9.63268 15.8169 9.6693 15.8269 9.67028C15.9952 9.73537 16.0646 9.90316 16.0161 10.1222C15.972 10.3223 15.8421 10.4906 15.6753 10.5719C15.5379 10.6407 15.3697 10.6465 15.1963 10.6465H15.0841L15.0926 10.6013ZM16.3797 11.3765C16.3251 11.6094 16.2623 12.0348 16.6516 12.1864C16.7757 12.2392 16.8869 12.2549 16.9999 12.2492C17.1193 12.2427 17.2299 12.1829 17.3323 12.0967C17.3231 12.1321 17.3138 12.1676 17.3046 12.2031L17.3222 12.2258C17.6022 12.214 17.6891 12.214 17.9924 12.2163L18.0199 12.1954C18.0642 11.935 18.1059 11.6822 18.221 11.1841C18.2771 10.9455 18.3331 10.7092 18.3906 10.4715L18.3816 10.4454C18.0684 10.5034 17.9847 10.5158 17.6835 10.5585L17.6606 10.5772C17.6576 10.6014 17.6544 10.6246 17.6515 10.6478C17.6046 10.5722 17.5367 10.5076 17.432 10.4673C17.298 10.4146 16.9834 10.4825 16.7129 10.7288C16.5228 10.9046 16.4316 11.1455 16.3797 11.3765ZM17.0375 11.3908C17.1045 11.1038 17.1816 10.8609 17.3811 10.8609C17.5073 10.8609 17.5737 10.9773 17.5602 11.1759C17.5495 11.2254 17.5379 11.2776 17.5242 11.3366C17.5042 11.4219 17.4826 11.5065 17.4615 11.5912C17.4401 11.6491 17.4152 11.7037 17.3878 11.7401C17.3365 11.8129 17.2143 11.858 17.144 11.858C17.124 11.858 17.0009 11.858 16.9966 11.6765C16.9956 11.5861 17.0143 11.493 17.0375 11.3908ZM20.4724 10.4431L20.4482 10.4154C20.1383 10.4782 20.0822 10.4882 19.7975 10.5266L19.7766 10.5476C19.7756 10.551 19.7747 10.5562 19.7733 10.561L19.7723 10.5562C19.5604 11.0452 19.5666 10.9397 19.394 11.3247C19.3931 11.3072 19.3931 11.2962 19.3921 11.2776L19.3489 10.4431L19.3217 10.4154C18.9971 10.4782 18.9895 10.4882 18.6897 10.5266L18.6663 10.5476C18.663 10.5575 18.663 10.5685 18.6611 10.5804L18.663 10.5847C18.7005 10.7762 18.6915 10.7335 18.7291 11.0357C18.7466 11.184 18.77 11.3332 18.7875 11.4797C18.817 11.7249 18.8336 11.8456 18.8697 12.2197C18.6673 12.5539 18.6193 12.6803 18.4244 12.9735L18.4257 12.9764L18.2885 13.1935C18.2728 13.2164 18.2586 13.2321 18.2386 13.2388C18.2167 13.2496 18.1882 13.2515 18.1487 13.2515H18.0726L17.9596 13.6275L18.3474 13.6342C18.575 13.6332 18.7181 13.5268 18.7951 13.3837L19.039 12.9658H19.0351L19.0608 12.9364C19.2248 12.5833 20.4724 10.4431 20.4724 10.4431ZM16.3797 15.3809H16.2152L16.8241 13.3671H17.0261L17.0902 13.1596L17.0964 13.3903C17.0888 13.5329 17.201 13.6593 17.4957 13.6384H17.8365L17.9538 13.2506H17.8256C17.7518 13.2506 17.7177 13.232 17.7219 13.1921L17.7157 12.9574H17.0846V12.9586C16.8805 12.9629 16.2712 12.9782 16.1478 13.011C15.9985 13.0495 15.8412 13.1626 15.8412 13.1626L15.903 12.955H15.3126L15.1896 13.3671L14.5726 15.4117H14.4529L14.3355 15.7966H15.5113L15.4719 15.925H16.0513L16.0898 15.7966H16.2523L16.3797 15.3809ZM15.8973 13.7762C15.8027 13.8024 15.6268 13.8817 15.6268 13.8817L15.7833 13.3671H16.2523L16.1392 13.7421C16.1392 13.7421 15.9943 13.7506 15.8973 13.7762ZM15.9063 14.5115C15.9063 14.5115 15.7589 14.53 15.662 14.5519C15.5665 14.5809 15.3874 14.6721 15.3874 14.6721L15.5489 14.1365H16.0204L15.9063 14.5115ZM15.6435 15.3856H15.173L15.3094 14.9336H15.7784L15.6435 15.3856ZM16.7766 14.1365H17.4548L17.3573 14.4521H16.6701L16.5669 14.7972H17.1682L16.7129 15.4383C16.6811 15.4854 16.6525 15.5021 16.6207 15.5153C16.5888 15.5315 16.547 15.5505 16.4985 15.5505H16.3317L16.2171 15.9284H16.6534C16.8802 15.9284 17.0142 15.8252 17.1131 15.6898L17.4253 15.2625L17.4924 15.6964C17.5066 15.7777 17.565 15.8252 17.6046 15.8437C17.6482 15.8656 17.6934 15.9032 17.7571 15.9088C17.8255 15.9117 17.8749 15.9141 17.9078 15.9141H18.1222L18.2509 15.4911H18.1663C18.1178 15.4911 18.0342 15.483 18.02 15.4678C18.0057 15.4493 18.0057 15.4208 17.9981 15.3775L17.93 14.9426H17.6515L17.7737 14.7972H18.4596L18.5651 14.4521H17.93L18.029 14.1365H18.662L18.7794 13.7473H16.892L16.7766 14.1365ZM11.0484 15.4735L11.2067 14.9469H11.8573L11.9761 14.5552H11.325L11.4244 14.2311H12.0607L12.1786 13.8518H10.5864L10.4709 14.2311H10.8327L10.7362 14.5552H10.3735L10.2532 14.9536H10.6149L10.4039 15.6503C10.3754 15.7425 10.4173 15.7777 10.4438 15.8205C10.4709 15.8623 10.4984 15.8899 10.5602 15.9056C10.624 15.9198 10.6677 15.9283 10.727 15.9283H11.4605L11.5912 15.4944L11.2661 15.5391C11.2033 15.5391 11.0294 15.5316 11.0484 15.4735ZM11.123 12.9526L10.9581 13.2506C10.9229 13.3157 10.8911 13.356 10.8625 13.3747C10.8373 13.3904 10.7874 13.3969 10.7152 13.3969H10.6291L10.5142 13.7781H10.7998C10.9372 13.7781 11.0427 13.7278 11.0931 13.7026C11.1472 13.6736 11.1615 13.6902 11.2033 13.6498L11.2998 13.5662H12.1919L12.3103 13.1693H11.6573L11.7713 12.9526H11.123ZM12.4401 15.4812C12.4248 15.4593 12.4358 15.4207 12.459 15.3404L12.7029 14.5333H13.5703C13.6967 14.5315 13.788 14.53 13.8473 14.5258C13.9111 14.5191 13.9804 14.4963 14.056 14.4555C14.134 14.4126 14.1739 14.3675 14.2076 14.3157C14.2452 14.2639 14.3056 14.1508 14.3574 13.9763L14.6639 12.955L13.7637 12.9602C13.7637 12.9602 13.4866 13.0011 13.3645 13.0462C13.2414 13.0966 13.0655 13.2373 13.0655 13.2373L13.1467 12.9573H12.5907L11.8122 15.5391C11.7846 15.6393 11.7661 15.7121 11.7618 15.7558C11.7604 15.8029 11.8212 15.8495 11.8606 15.8846C11.9072 15.9198 11.9761 15.9141 12.0422 15.9198C12.1117 15.925 12.2105 15.9283 12.3469 15.9283H12.7742L12.9053 15.4854L12.5228 15.5216C12.4819 15.5216 12.4523 15.4997 12.4401 15.4812ZM12.8602 13.9882H13.7713L13.7134 14.1698C13.7052 14.174 13.6858 14.1608 13.593 14.1717H12.8041L12.8602 13.9882ZM13.0427 13.3794H13.9615L13.8954 13.598C13.8954 13.598 13.4624 13.5938 13.393 13.6065C13.0878 13.6593 12.9096 13.8224 12.9096 13.8224L13.0427 13.3794ZM13.7338 14.7777C13.7262 14.8048 13.7143 14.8214 13.6976 14.8338C13.6791 14.8457 13.6492 14.85 13.6045 14.85H13.4747L13.4824 14.6289H12.9424L12.9205 15.7097C12.9196 15.7877 12.9272 15.8328 12.9843 15.869C13.0413 15.9141 13.2171 15.9198 13.4538 15.9198H13.7922L13.9143 15.5153L13.6198 15.5315L13.5218 15.5372C13.5084 15.5315 13.4956 15.5262 13.4814 15.512C13.469 15.4997 13.4481 15.5072 13.4515 15.4293L13.4538 15.1522L13.7627 15.1394C13.9295 15.1394 14.0008 15.0852 14.0617 15.0334C14.1197 14.9839 14.1387 14.927 14.1606 14.85L14.2124 14.6047H13.7879L13.7338 14.7777Z" fill="#FEFEFE"/>
</svg>

<svg width="24" height="24" fill="none" xmlns="http://www.w3.org/2000/svg">
    <path d="M5.917 6h4.992c.696 0 1.13.568.967 1.267l-2.324 9.979c-.164.696-.861 1.265-1.559 1.265H3.002c-.696 0-1.13-.569-.968-1.265L4.36 7.267C4.522 6.568 5.22 6 5.917 6z" fill="#E21836"/>
    <path d="M10.494 6h5.74c.697 0 .383.568.219 1.267l-2.324 9.978c-.163.697-.112 1.265-.81 1.265h-5.74c-.699 0-1.131-.568-.967-1.265l2.324-9.978C9.1 6.568 9.796 6 10.494 6z" fill="#00447C"/>
    <path d="M16.006 6h4.992c.698 0 1.131.568.967 1.267l-2.323 9.978c-.165.697-.863 1.265-1.56 1.265h-4.99c-.698 0-1.131-.568-.968-1.265l2.324-9.978c.163-.699.86-1.267 1.558-1.267z" fill="#007B84"/>
    <path d="M7.22 9.198c-.513.005-.665 0-.713-.012a806.99 806.99 0 01-.366 1.688c-.075.323-.129.554-.313.703a.558.558 0 01-.369.128c-.227 0-.36-.113-.382-.328l-.004-.073.069-.436s.364-1.456.429-1.648a.14.14 0 00.005-.022c-.708.006-.833 0-.842-.012a2.733 2.733 0 00-.022.106l-.371 1.642-.032.139-.062.455a.67.67 0 00.08.339c.169.295.651.34.924.34.352 0 .681-.075.904-.212.387-.228.488-.586.579-.903l.042-.163s.374-1.513.438-1.71c.002-.01.003-.016.006-.021zm1.275 1.22a.99.99 0 00-.404.094c-.054.028-.104.06-.158.092l.048-.175-.026-.03c-.314.064-.385.073-.675.113l-.024.017c-.034.28-.064.49-.189 1.039-.048.202-.097.406-.147.608l.014.026c.297-.016.388-.016.646-.011l.021-.023c.033-.168.037-.208.11-.549.034-.161.105-.516.14-.643a.48.48 0 01.19-.059c.145 0 .127.126.121.177-.006.084-.059.36-.113.598l-.036.153c-.025.113-.053.223-.078.335l.011.022c.293-.016.383-.016.633-.011l.03-.023c.045-.263.058-.333.139-.716l.04-.176c.078-.344.118-.518.058-.66-.062-.16-.213-.198-.351-.198zm1.423.36c-.156.03-.255.05-.354.063-.098.016-.193.03-.344.05l-.012.012-.01.008c-.017.112-.028.21-.048.323a5.92 5.92 0 01-.09.445 1.745 1.745 0 01-.07.25c-.02.052-.04.102-.079.247l.01.014.007.012c.14-.007.232-.011.327-.012.095-.004.193 0 .344 0l.014-.01.014-.012c.022-.13.025-.166.038-.23.014-.068.036-.163.093-.416.026-.118.056-.237.083-.358l.087-.358-.004-.015-.006-.013zm.003-.486c-.141-.083-.39-.057-.557.059-.167.113-.186.274-.045.358.14.082.39.057.555-.06.166-.115.187-.274.047-.357zm.857 1.936c.287 0 .58-.079.801-.313.17-.19.248-.473.275-.59.088-.385.02-.565-.066-.675-.13-.168-.362-.221-.601-.221-.144 0-.487.014-.755.261-.193.178-.282.42-.336.652-.054.236-.116.662.275.82.12.052.295.066.407.066zm-.022-.868c.066-.292.144-.538.343-.538.156 0 .167.183.098.476-.013.065-.07.307-.147.41-.054.076-.117.122-.187.122-.021 0-.146 0-.148-.184a1.26 1.26 0 01.04-.286zm1.815.83l.022-.022c.032-.168.037-.208.107-.549.036-.161.108-.516.143-.643.064-.03.127-.06.19-.06.144 0 .126.127.12.178a5.78 5.78 0 01-.113.598l-.034.153c-.026.113-.055.223-.08.335l.011.022c.294-.016.38-.016.632-.011l.03-.023c.045-.263.057-.333.14-.716l.039-.176c.079-.344.119-.518.06-.66-.064-.16-.216-.198-.352-.198a.985.985 0 00-.561.186l.045-.175-.024-.03c-.314.064-.386.073-.676.113l-.022.017c-.036.28-.064.49-.19 1.039-.047.202-.096.407-.146.609l.014.025c.298-.016.387-.016.645-.011zm2.161.012l.13-.625s.093-.393.099-.407c0 0 .03-.041.059-.057h.043c.409 0 .87 0 1.232-.266a1.32 1.32 0 00.49-.78c.02-.08.033-.176.033-.271a.57.57 0 00-.098-.347c-.184-.258-.551-.263-.975-.265l-.21.002c-.542.007-.76.005-.85-.006l-.021.11-.194.903-.488 2.006c.474-.006.669-.006.75.003zm.36-1.6l.206-.897.007-.046.003-.035.083.009.436.037c.168.065.238.233.19.452a.657.657 0 01-.342.45c-.137.069-.305.075-.479.075h-.112l.009-.046zm1.288.774c-.055.233-.118.659.272.81a.76.76 0 00.348.063.575.575 0 00.332-.152l-.027.106.017.023c.28-.012.367-.012.67-.01l.028-.02c.044-.261.086-.514.201-1.012.056-.239.112-.475.17-.712l-.01-.027c-.313.058-.396.07-.698.114l-.022.018-.01.07a.431.431 0 00-.219-.18c-.134-.052-.449.015-.72.262-.19.176-.28.417-.332.648zm.658.015c.067-.287.144-.53.343-.53.126 0 .193.116.18.315l-.037.16c-.02.086-.041.17-.063.255a.616.616 0 01-.073.15.349.349 0 01-.244.117c-.02 0-.143 0-.147-.181a1.26 1.26 0 01.04-.286zm3.434-.948l-.024-.028a7.33 7.33 0 01-.65.112l-.021.02-.004.014v-.005c-.213.49-.206.384-.379.769 0-.018 0-.029-.002-.047l-.043-.835-.027-.028c-.325.063-.332.073-.632.112l-.024.02c-.003.01-.003.021-.005.033l.002.005c.038.191.029.148.066.45.018.149.041.298.059.445.029.245.046.366.082.74-.203.334-.25.46-.446.753l.002.003-.137.217c-.016.023-.03.04-.05.046a.208.208 0 01-.09.012h-.076l-.113.377.387.006c.228 0 .371-.107.448-.25l.244-.418h-.004l.026-.03c.164-.353 1.411-2.493 1.411-2.493zm-4.092 4.938h-.165l.61-2.014h.201l.064-.207.006.23c-.007.143.105.27.4.248h.34l.118-.387h-.128c-.074 0-.108-.019-.104-.059l-.006-.235h-.631v.002c-.204.004-.814.02-.937.052-.15.039-.307.152-.307.152l.062-.208h-.59l-.123.412-.617 2.045h-.12l-.117.385h1.175l-.04.128h.58l.039-.128h.162l.128-.416zm-.483-1.605c-.094.026-.27.106-.27.106l.156-.515h.47l-.114.375s-.145.009-.242.034zm.01.736s-.148.018-.245.04a2.4 2.4 0 00-.275.12l.162-.536h.471l-.114.376zm-.264.874h-.47l.136-.452h.47l-.136.452zm1.134-1.25h.678l-.098.316h-.687l-.103.345h.601l-.455.641a.187.187 0 01-.092.077.27.27 0 01-.122.035h-.167l-.115.378h.436a.53.53 0 00.46-.238l.312-.428.067.434a.204.204 0 00.113.148c.043.022.088.06.152.065.069.003.118.005.15.005h.215l.129-.423h-.085c-.048 0-.132-.008-.146-.023-.014-.019-.014-.047-.022-.09l-.068-.435h-.279l.123-.146h.686l.105-.345h-.635l.099-.316h.633l.117-.389h-1.887l-.115.39zm-5.729 1.338l.159-.527h.65l.12-.392h-.652l.1-.324h.636l.118-.38h-1.593l-.115.38h.362l-.097.324h-.363l-.12.399h.362l-.211.696c-.029.092.013.128.04.17.027.042.054.07.116.086a.704.704 0 00.167.022h.733l.131-.434-.325.045c-.063 0-.237-.007-.218-.066zm.075-2.521l-.165.298a.345.345 0 01-.095.124.334.334 0 01-.148.022h-.086l-.115.381h.286a.65.65 0 00.293-.075c.054-.03.069-.013.11-.053l.097-.084h.892l.118-.397h-.653l.114-.216h-.648zm1.317 2.528c-.015-.022-.004-.06.019-.14l.244-.808h.867c.127-.002.218-.003.277-.007a.568.568 0 00.209-.07.391.391 0 00.152-.14c.037-.052.098-.165.15-.34l.306-1.021-.9.005s-.277.041-.4.086c-.123.05-.299.191-.299.191l.082-.28h-.556l-.779 2.582a1.6 1.6 0 00-.05.217c-.002.047.06.094.099.129.046.035.115.03.181.035.07.005.168.008.305.008h.427l.131-.443-.382.037a.1.1 0 01-.083-.04zm.42-1.493h.911l-.058.182c-.008.004-.027-.01-.12.002h-.789l.056-.184zm.183-.609h.918l-.066.219s-.433-.004-.502.008a1.024 1.024 0 00-.483.216l.133-.443zm.69 1.399a.097.097 0 01-.035.056c-.019.012-.049.016-.094.016h-.13l.008-.221h-.54l-.021 1.08c-.001.079.006.124.063.16.057.045.233.05.47.05h.338l.122-.404-.294.016-.098.006c-.014-.006-.026-.01-.04-.025-.013-.012-.034-.005-.03-.083l.002-.277.309-.013a.4.4 0 00.299-.106c.058-.05.077-.106.099-.183l.051-.245h-.424l-.054.173z" fill="#FEFEFE"/>
</svg>
